X:3
T:Stakkars Per (hoppvals)
R:hoppvals
Z:2001 Brian Wilson
Z:StorBrekkingen track 25,
Z:(see Nyhus, Fel'Klang #93, in A)
M:2/4
L:1/8
K:G
||: "G"Bd/B/ "G/D"(G.G) | "G"Bd/B/ "G/D"(GB) | "D"A>B "C"ce | "C/G"ed "D"dc
| "G"Bd/B/ "G/D"(G.G) | "G"Bd/B/ "G/D"(GB) | "D"A>B "D/A"(c/A/)(F/A/)
|1 "G"G2- "D"Gd :|2 "G"G2- "D"GD |
|: "G"G3/2G/4G/4 "G/D"(GA) |  "G"B3/2B/4B/4 "G/D"(BG)
| "C"c3/2c/4c/4 "C/E"(ce) | "G"ed "D"dB
| "G"G3/2G/4G/4 "G/D"(GA) |  "G"B3/2B/4B/4 "G/D"(BG)
| "D"A>B "D/A"(c/A/)(F/A/)
|1 "G"G2- "D"GD :|2 "G"G2- "D"G(B/d/) |
|: "G"g3/2g/4g/4 "G/D"(g.g) | "D"f3/2f/4f/4 "D/A"(f.f)
| "C"e>f "C/E"ge | "G"ed "G/D"dB
| "Am"c(e/c/) "D"Ac | "G"B(d/B/) "Em"GB | "Am"A>B "D"(c/A/)(F/A/)
|1 "G"G2- "D"G(B/d/) :|2 "G"G2- "D"Gd ||
